48x48/apps/gespeaker.svg

<svg viewBox="0 0 48 48"><defs><linearGradient id="linearGradient3764" x1="1" x2="47" gradientUnits="userSpaceOnUse" gradientTransform="matrix(0,-1,1,0,-1.5e-6,47.999998)"><stop stop-color="#e4e4e4" stop-opacity="1"/><stop offset="1" stop-color="#eee" stop-opacity="1"/></linearGradient><clipPath id="clipPath-298107070"><g transform="translate(0,-1004.3622)"><path d="m -24 13 c 0 1.105 -0.672 2 -1.5 2 -0.828 0 -1.5 -0.895 -1.5 -2 0 -1.105 0.672 -2 1.5 -2 0.828 0 1.5 0.895 1.5 2 z" transform="matrix(15.333333,0,0,11.5,414.99999,878.8622)" fill="#1890d0"/></g></clipPath><clipPath id="clipPath-310613061"><g transform="translate(0,-1004.3622)"><path d="m -24 13 c 0 1.105 -0.672 2 -1.5 2 -0.828 0 -1.5 -0.895 -1.5 -2 0 -1.105 0.672 -2 1.5 -2 0.828 0 1.5 0.895 1.5 2 z" transform="matrix(15.333333,0,0,11.5,414.99999,878.8622)" fill="#1890d0"/></g></clipPath></defs><g><path d="m 36.31 5 c 5.859 4.062 9.688 10.831 9.688 18.5 c 0 12.426 -10.07 22.5 -22.5 22.5 c -7.669 0 -14.438 -3.828 -18.5 -9.688 c 1.037 1.822 2.306 3.499 3.781 4.969 c 4.085 3.712 9.514 5.969 15.469 5.969 c 12.703 0 23 -10.298 23 -23 c 0 -5.954 -2.256 -11.384 -5.969 -15.469 c -1.469 -1.475 -3.147 -2.744 -4.969 -3.781 z m 4.969 3.781 c 3.854 4.113 6.219 9.637 6.219 15.719 c 0 12.703 -10.297 23 -23 23 c -6.081 0 -11.606 -2.364 -15.719 -6.219 c 4.16 4.144 9.883 6.719 16.219 6.719 c 12.703 0 23 -10.298 23 -23 c 0 -6.335 -2.575 -12.06 -6.719 -16.219 z" opacity="0.05"/><path d="m 41.28 8.781 c 3.712 4.085 5.969 9.514 5.969 15.469 c 0 12.703 -10.297 23 -23 23 c -5.954 0 -11.384 -2.256 -15.469 -5.969 c 4.113 3.854 9.637 6.219 15.719 6.219 c 12.703 0 23 -10.298 23 -23 c 0 -6.081 -2.364 -11.606 -6.219 -15.719 z" opacity="0.1"/><path d="m 31.25 2.375 c 8.615 3.154 14.75 11.417 14.75 21.13 c 0 12.426 -10.07 22.5 -22.5 22.5 c -9.708 0 -17.971 -6.135 -21.12 -14.75 a 23 23 0 0 0 44.875 -7 a 23 23 0 0 0 -16 -21.875 z" opacity="0.2"/></g><g><path d="m 24 1 c 12.703 0 23 10.297 23 23 c 0 12.703 -10.297 23 -23 23 -12.703 0 -23 -10.297 -23 -23 0 -12.703 10.297 -23 23 -23 z" fill="url(#linearGradient3764)" fill-opacity="1"/></g><g/><g><g clip-path="url(#clipPath-298107070)"><g transform="translate(1,1)"><g opacity="0.1"><!-- color: #eeeeee --><g><path d="m 3.297 6.727 c -0.036 0.047 -0.051 0.107 -0.056 0.185 l 0.068 1.32 c 0.017 0.305 0.129 0.47 0.301 0.579 c 0.173 0.111 0.399 0.176 0.658 0.313 c 0.549 0.288 1.398 0.332 1.398 0.332 l 1.546 0.003 c 0.165 -0.024 0.33 -0.152 0.469 -0.24 c 0.129 -0.088 0.227 -0.213 0.245 -0.358 l 0.013 -0.923 c -0.001 -0.05 -0.018 -0.092 -0.045 -0.118 c -0.031 -0.031 -0.069 -0.043 -0.109 -0.053 c -0.14 -0.001 -0.28 -0.01 -0.42 -0.012 c -0.165 0 -0.277 0.097 -0.385 0.205 c -0.103 0.099 -0.222 0.213 -0.481 0.267 c -0.203 0.002 -0.343 -0.074 -0.486 -0.17 c -0.141 -0.095 -0.292 -0.232 -0.494 -0.269 c -0.329 -0.007 -0.892 -0.031 -1.219 -0.032 l -0.348 -0.916 c -0.16 -0.056 -0.32 -0.118 -0.481 -0.172 c -0.075 -0.019 -0.134 0.019 -0.173 0.064 m 0.001 -0.002" transform="matrix(3.543307,0,0,3.543307,0,0)" stroke-opacity="1" fill="#000" stroke="#535453" stroke-linejoin="round" stroke-linecap="round" stroke-width="0.273" stroke-miterlimit="4"/><path d="m 3.816 4.803 c -0.159 0.174 -0.28 0.357 -0.344 0.515 c -0.032 0.079 -0.049 0.152 -0.045 0.219 c 0.001 0.066 0.023 0.139 0.085 0.18 l 1.031 0.395 l 0.255 0.869 c 0.01 0.031 0.041 0.053 0.074 0.054 c 0 0 0.638 0.031 0.638 0.031 c 0.022 0.001 0.043 -0.008 0.058 -0.021 c 0 0 0.114 -0.11 0.239 -0.226 c 0.065 -0.057 0.129 -0.119 0.186 -0.162 c 0.088 -0.077 0.161 -0.065 0.266 -0.021 c 0.065 0.035 0.14 0.088 0.245 0.086 c 0.098 -0.003 0.164 -0.063 0.202 -0.099 c 0.061 -0.076 0.104 -0.052 0.183 -0.01 c 0.055 0.033 0.115 0.078 0.17 0.13 c 0.112 0.097 0.205 0.204 0.205 0.204 c 0.013 0.012 0.031 0.022 0.052 0.023 l 0.494 0.042 c 0.15 0 0.192 -0.034 0.218 -0.14 c 0.033 -0.075 0.037 -0.161 0.045 -0.269 l 0.058 -1.03 c 0.01 -0.512 -0.198 -0.863 -0.439 -1.066 c -0.278 -0.237 -0.615 -0.401 -0.913 -0.411 c -0.552 -0.001 -1.107 -0.002 -1.66 -0.007 c -0.539 0.05 -0.927 0.364 -1.303 0.715 m 0 -0.001" transform="matrix(3.543307,0,0,3.543307,0,0)" stroke-opacity="1" fill="#000" stroke="#535453" stroke-linejoin="round" stroke-linecap="round" stroke-width="0.273" stroke-miterlimit="4"/><path d="m 9.23 5.486 c 1.321 0.562 1.368 2.883 0 3.7" transform="matrix(3.543307,0,0,3.543307,0,0)" stroke-opacity="1" fill="#000" stroke="#709ccf" stroke-linejoin="round" stroke-linecap="round" stroke-width="0.41" stroke-miterlimit="4"/><path d="m 8.7 6.475 c 0.701 0.281 0.624 1.431 0 1.72" transform="matrix(3.543307,0,0,3.543307,0,0)" stroke-opacity="1" fill="#000" stroke="#709ccf" stroke-linejoin="round" stroke-linecap="round" stroke-width="0.41" stroke-miterlimit="4"/><path d="m 24 18.918 c 0.008 0.449 0.266 0.855 0.672 1.063 c 0.41 0.211 0.902 0.191 1.293 -0.051 c 0.387 -0.242 0.609 -0.668 0.578 -1.113 c -0.008 -0.445 -0.266 -0.852 -0.672 -1.063 c -0.41 -0.211 -0.902 -0.191 -1.293 0.051 c -0.387 0.242 -0.609 0.668 -0.578 1.113 m 0 0" fill="#000" stroke="none" fill-rule="nonzero" fill-opacity="1"/><path d="m 17.949 19.02 c 0.008 0.445 0.27 0.852 0.676 1.063 c 0.406 0.211 0.902 0.188 1.289 -0.051 c 0.391 -0.242 0.613 -0.668 0.582 -1.113 c -0.008 -0.449 -0.266 -0.855 -0.676 -1.066 c -0.406 -0.207 -0.902 -0.188 -1.289 0.055 c -0.387 0.242 -0.609 0.668 -0.582 1.113 m 0 0" fill="#000" stroke="none" fill-rule="nonzero" fill-opacity="1"/></g></g></g></g></g><g><g clip-path="url(#clipPath-310613061)"><!-- color: #eeeeee --><g><path d="m 3.297 6.727 c -0.036 0.047 -0.051 0.107 -0.056 0.185 l 0.068 1.32 c 0.017 0.305 0.129 0.47 0.301 0.579 c 0.173 0.111 0.399 0.176 0.658 0.313 c 0.549 0.288 1.398 0.332 1.398 0.332 l 1.546 0.003 c 0.165 -0.024 0.33 -0.152 0.469 -0.24 c 0.129 -0.088 0.227 -0.213 0.245 -0.358 l 0.013 -0.923 c -0.001 -0.05 -0.018 -0.092 -0.045 -0.118 c -0.031 -0.031 -0.069 -0.043 -0.109 -0.053 c -0.14 -0.001 -0.28 -0.01 -0.42 -0.012 c -0.165 0 -0.277 0.097 -0.385 0.205 c -0.103 0.099 -0.222 0.213 -0.481 0.267 c -0.203 0.002 -0.343 -0.074 -0.486 -0.17 c -0.141 -0.095 -0.292 -0.232 -0.494 -0.269 c -0.329 -0.007 -0.892 -0.031 -1.219 -0.032 l -0.348 -0.916 c -0.16 -0.056 -0.32 -0.118 -0.481 -0.172 c -0.075 -0.019 -0.134 0.019 -0.173 0.064 m 0.001 -0.002" transform="matrix(3.543307,0,0,3.543307,0,0)" stroke-opacity="1" fill="none" stroke="#535453" stroke-linejoin="round" stroke-linecap="round" stroke-width="0.273" stroke-miterlimit="4"/><path d="m 3.816 4.803 c -0.159 0.174 -0.28 0.357 -0.344 0.515 c -0.032 0.079 -0.049 0.152 -0.045 0.219 c 0.001 0.066 0.023 0.139 0.085 0.18 l 1.031 0.395 l 0.255 0.869 c 0.01 0.031 0.041 0.053 0.074 0.054 c 0 0 0.638 0.031 0.638 0.031 c 0.022 0.001 0.043 -0.008 0.058 -0.021 c 0 0 0.114 -0.11 0.239 -0.226 c 0.065 -0.057 0.129 -0.119 0.186 -0.162 c 0.088 -0.077 0.161 -0.065 0.266 -0.021 c 0.065 0.035 0.14 0.088 0.245 0.086 c 0.098 -0.003 0.164 -0.063 0.202 -0.099 c 0.061 -0.076 0.104 -0.052 0.183 -0.01 c 0.055 0.033 0.115 0.078 0.17 0.13 c 0.112 0.097 0.205 0.204 0.205 0.204 c 0.013 0.012 0.031 0.022 0.052 0.023 l 0.494 0.042 c 0.15 0 0.192 -0.034 0.218 -0.14 c 0.033 -0.075 0.037 -0.161 0.045 -0.269 l 0.058 -1.03 c 0.01 -0.512 -0.198 -0.863 -0.439 -1.066 c -0.278 -0.237 -0.615 -0.401 -0.913 -0.411 c -0.552 -0.001 -1.107 -0.002 -1.66 -0.007 c -0.539 0.05 -0.927 0.364 -1.303 0.715 m 0 -0.001" transform="matrix(3.543307,0,0,3.543307,0,0)" stroke-opacity="1" fill="none" stroke="#535453" stroke-linejoin="round" stroke-linecap="round" stroke-width="0.273" stroke-miterlimit="4"/><path d="m 9.23 5.486 c 1.321 0.562 1.368 2.883 0 3.7" transform="matrix(3.543307,0,0,3.543307,0,0)" stroke-opacity="1" fill="none" stroke="#709ccf" stroke-linejoin="round" stroke-linecap="round" stroke-width="0.41" stroke-miterlimit="4"/><path d="m 8.7 6.475 c 0.701 0.281 0.624 1.431 0 1.72" transform="matrix(3.543307,0,0,3.543307,0,0)" stroke-opacity="1" fill="none" stroke="#709ccf" stroke-linejoin="round" stroke-linecap="round" stroke-width="0.41" stroke-miterlimit="4"/><path d="m 24 18.918 c 0.008 0.449 0.266 0.855 0.672 1.063 c 0.41 0.211 0.902 0.191 1.293 -0.051 c 0.387 -0.242 0.609 -0.668 0.578 -1.113 c -0.008 -0.445 -0.266 -0.852 -0.672 -1.063 c -0.41 -0.211 -0.902 -0.191 -1.293 0.051 c -0.387 0.242 -0.609 0.668 -0.578 1.113 m 0 0" fill="#535453" stroke="none" fill-rule="nonzero" fill-opacity="1"/><path d="m 17.949 19.02 c 0.008 0.445 0.27 0.852 0.676 1.063 c 0.406 0.211 0.902 0.188 1.289 -0.051 c 0.391 -0.242 0.613 -0.668 0.582 -1.113 c -0.008 -0.449 -0.266 -0.855 -0.676 -1.066 c -0.406 -0.207 -0.902 -0.188 -1.289 0.055 c -0.387 0.242 -0.609 0.668 -0.582 1.113 m 0 0" fill="#535453" stroke="none" fill-rule="nonzero" fill-opacity="1"/></g></g></g><g><path d="m 40.03 7.531 c 3.712 4.084 5.969 9.514 5.969 15.469 0 12.703 -10.297 23 -23 23 c -5.954 0 -11.384 -2.256 -15.469 -5.969 4.178 4.291 10.01 6.969 16.469 6.969 c 12.703 0 23 -10.298 23 -23 0 -6.462 -2.677 -12.291 -6.969 -16.469 z" opacity="0.1"/></g></svg>

<?xml version="1.0" encoding="UTF-8" standalone="no"?>
<svg
   xmlns:dc="http://purl.org/dc/elements/1.1/"
   xmlns:cc="http://creativecommons.org/ns#"
   xmlns:rdf="http://www.w3.org/1999/02/22-rdf-syntax-ns#"
   xmlns:svg="http://www.w3.org/2000/svg"
   xmlns="http://www.w3.org/2000/svg"
   xmlns:sodipodi="http://sodipodi.sourceforge.net/DTD/sodipodi-0.dtd"
   xmlns:inkscape="http://www.inkscape.org/namespaces/inkscape"
   viewBox="0 0 48 48"
   id="svg2"
   version="1.1"
   inkscape:version="0.48.4 r9939"
   width="100%"
   height="100%"
   sodipodi:docname="gespeaker.svg">
  <metadata
     id="metadata81">
    <rdf:RDF>
      <cc:Work
         rdf:about="">
        <dc:format>image/svg+xml</dc:format>
        <dc:type
           rdf:resource="http://purl.org/dc/dcmitype/StillImage" />
      </cc:Work>
    </rdf:RDF>
  </metadata>
  <sodipodi:namedview
     pagecolor="#ffffff"
     bordercolor="#666666"
     borderopacity="1"
     objecttolerance="10"
     gridtolerance="10"
     guidetolerance="10"
     inkscape:pageopacity="0"
     inkscape:pageshadow="2"
     inkscape:window-width="1375"
     inkscape:window-height="876"
     id="namedview79"
     showgrid="false"
     inkscape:zoom="4.9166667"
     inkscape:cx="-0.20338983"
     inkscape:cy="24"
     inkscape:window-x="65"
     inkscape:window-y="24"
     inkscape:window-maximized="1"
     inkscape:current-layer="svg2" />
  <defs
     id="defs4">
    <linearGradient
       id="linearGradient3764"
       x1="1"
       x2="47"
       gradientUnits="userSpaceOnUse"
       gradientTransform="matrix(0,-1,1,0,-1.5e-6,47.999998)">
      <stop
         stop-color="#e4e4e4"
         stop-opacity="1"
         id="stop7" />
      <stop
         offset="1"
         stop-color="#eee"
         stop-opacity="1"
         id="stop9" />
    </linearGradient>
    <clipPath
       id="clipPath-298107070">
      <g
         transform="translate(0,-1004.3622)"
         id="g12">
        <path
           d="m -24 13 c 0 1.105 -0.672 2 -1.5 2 -0.828 0 -1.5 -0.895 -1.5 -2 0 -1.105 0.672 -2 1.5 -2 0.828 0 1.5 0.895 1.5 2 z"
           transform="matrix(15.333333,0,0,11.5,414.99999,878.8622)"
           fill="#1890d0"
           id="path14" />
      </g>
    </clipPath>
    <clipPath
       id="clipPath-310613061">
      <g
         transform="translate(0,-1004.3622)"
         id="g17">
        <path
           d="m -24 13 c 0 1.105 -0.672 2 -1.5 2 -0.828 0 -1.5 -0.895 -1.5 -2 0 -1.105 0.672 -2 1.5 -2 0.828 0 1.5 0.895 1.5 2 z"
           transform="matrix(15.333333,0,0,11.5,414.99999,878.8622)"
           fill="#1890d0"
           id="path19" />
      </g>
    </clipPath>
    <linearGradient
       id="linearGradient3764-4"
       x1="1"
       x2="47"
       gradientUnits="userSpaceOnUse"
       gradientTransform="matrix(0,-1,1,0,-1.5e-6,47.999998)">
      <stop
         stop-color="#b5945b"
         stop-opacity="1"
         id="stop7-5" />
      <stop
         offset="1"
         stop-color="#bb9e69"
         stop-opacity="1"
         id="stop9-7" />
    </linearGradient>
    <clipPath
       id="clipPath-899834956">
      <g
         transform="translate(0,-1004.3622)"
         id="g12-4">
        <path
           d="m -24 13 c 0 1.105 -0.672 2 -1.5 2 -0.828 0 -1.5 -0.895 -1.5 -2 0 -1.105 0.672 -2 1.5 -2 0.828 0 1.5 0.895 1.5 2 z"
           transform="matrix(15.333333,0,0,11.5,414.99999,878.8622)"
           fill="#1890d0"
           id="path14-0" />
      </g>
    </clipPath>
    <clipPath
       id="clipPath-909443126">
      <g
         transform="translate(0,-1004.3622)"
         id="g17-9">
        <path
           d="m -24 13 c 0 1.105 -0.672 2 -1.5 2 -0.828 0 -1.5 -0.895 -1.5 -2 0 -1.105 0.672 -2 1.5 -2 0.828 0 1.5 0.895 1.5 2 z"
           transform="matrix(15.333333,0,0,11.5,414.99999,878.8622)"
           fill="#1890d0"
           id="path19-9" />
      </g>
    </clipPath>
    <clipPath
       id="clipPath-909443126-7">
      <g
         transform="translate(0,-1004.3622)"
         id="g17-2">
        <path
           style="fill:#1890d0"
           inkscape:connector-curvature="0"
           d="m -24,13 c 0,1.105 -0.672,2 -1.5,2 -0.828,0 -1.5,-0.895 -1.5,-2 0,-1.105 0.672,-2 1.5,-2 0.828,0 1.5,0.895 1.5,2 z"
           transform="matrix(15.333333,0,0,11.5,414.99999,878.8622)"
           id="path19-3" />
      </g>
    </clipPath>
    <linearGradient
       id="linearGradient3759">
      <stop
         id="stop3761"
         offset="0"
         style="stop-color:#a75e15;stop-opacity:1;" />
      <stop
         id="stop3763"
         offset="1"
         style="stop-color:#ffffff;stop-opacity:0;" />
    </linearGradient>
    <linearGradient
       id="linearGradient3777">
      <stop
         id="stop3779"
         offset="0"
         style="stop-color:#e0dd00;stop-opacity:1;" />
      <stop
         id="stop3781"
         offset="1"
         style="stop-color:#000000;stop-opacity:0;" />
    </linearGradient>
    <clipPath
       id="clipPath-310613061-3">
      <g
         transform="translate(0,-1004.3622)"
         id="g17-93">
        <path
           style="fill:#1890d0"
           inkscape:connector-curvature="0"
           d="m -24,13 c 0,1.105 -0.672,2 -1.5,2 -0.828,0 -1.5,-0.895 -1.5,-2 0,-1.105 0.672,-2 1.5,-2 0.828,0 1.5,0.895 1.5,2 z"
           transform="matrix(15.333333,0,0,11.5,414.99999,878.8622)"
           id="path19-0" />
      </g>
    </clipPath>
  </defs>
  <g
     id="g33" />
  <g
     id="g3105">
    <g
       inkscape:label="shadows"
       id="layer2">
      <rect
         ry="13.03658"
         rx="13.03658"
         y="1"
         x="1"
         height="46"
         width="46"
         id="rect3007"
         style="opacity:0.1;fill:#000000;fill-opacity:1;fill-rule:nonzero;stroke:none" />
      <rect
         style="opacity:0.1;fill:#000000;fill-opacity:1;fill-rule:nonzero;stroke:none"
         id="rect3011"
         width="47"
         height="47"
         x="0.5"
         y="0.5"
         rx="13.319984"
         ry="13.319984" />
      <rect
         style="opacity:0.1;fill:#000000;fill-opacity:1;fill-rule:nonzero;stroke:none"
         id="rect3013"
         width="46.5"
         height="46.5"
         x="0.75"
         y="0.75"
         rx="13.178282"
         ry="13.178282" />
    </g>
    <g
       style="display:inline"
       inkscape:label="background-color"
       id="layer1">
      <rect
         transform="matrix(0,-1,1,0,0,0)"
         ry="12.753176"
         rx="12.753176"
         y="1.5"
         x="-46.5"
         height="45"
         width="45"
         id="rect2988"
         style="fill:#f2f2f2;fill-opacity:1;fill-rule:nonzero;stroke:none" />
    </g>
  </g>
  <g
     transform="translate(-0.00227658,-0.00236162)"
     id="g57-5">
    <g
       clip-path="url(#clipPath-310613061-3)"
       id="g59-4">
      <!-- color: #eeeeee -->
      <g
         id="g61-9">
        <path
           style="fill:none;stroke:#535453;stroke-width:0.273;stroke-linecap:round;stroke-linejoin:round;stroke-miterlimit:4;stroke-opacity:1"
           inkscape:connector-curvature="0"
           d="M 3.297,6.727 C 3.261,6.774 3.246,6.834 3.241,6.912 l 0.068,1.32 C 3.326,8.537 3.438,8.702 3.61,8.811 3.783,8.922 4.009,8.987 4.268,9.124 4.817,9.412 5.666,9.456 5.666,9.456 L 7.212,9.459 C 7.377,9.435 7.542,9.307 7.681,9.219 7.81,9.131 7.908,9.006 7.926,8.861 L 7.939,7.938 C 7.938,7.888 7.921,7.846 7.894,7.82 7.863,7.789 7.825,7.777 7.785,7.767 7.645,7.766 7.505,7.757 7.365,7.755 7.2,7.755 7.088,7.852 6.98,7.96 6.877,8.059 6.758,8.173 6.499,8.227 6.296,8.229 6.156,8.153 6.013,8.057 5.872,7.962 5.721,7.825 5.519,7.788 5.19,7.781 4.627,7.757 4.3,7.756 L 3.952,6.84 C 3.792,6.784 3.632,6.722 3.471,6.668 3.396,6.649 3.337,6.687 3.298,6.732 M 3.299,6.73"
           transform="scale(3.543307,3.543307)"
           stroke-miterlimit="4"
           id="path63-0" />
        <path
           style="fill:none;stroke:#535453;stroke-width:0.273;stroke-linecap:round;stroke-linejoin:round;stroke-miterlimit:4;stroke-opacity:1"
           inkscape:connector-curvature="0"
           d="M 3.816,4.803 C 3.657,4.977 3.536,5.16 3.472,5.318 3.44,5.397 3.423,5.47 3.427,5.537 3.428,5.603 3.45,5.676 3.512,5.717 l 1.031,0.395 0.255,0.869 c 0.01,0.031 0.041,0.053 0.074,0.054 0,0 0.638,0.031 0.638,0.031 0.022,0.001 0.043,-0.008 0.058,-0.021 0,0 0.114,-0.11 0.239,-0.226 C 5.872,6.762 5.936,6.7 5.993,6.657 6.081,6.58 6.154,6.592 6.259,6.636 6.324,6.671 6.399,6.724 6.504,6.722 6.602,6.719 6.668,6.659 6.706,6.623 6.767,6.547 6.81,6.571 6.889,6.613 6.944,6.646 7.004,6.691 7.059,6.743 7.171,6.84 7.264,6.947 7.264,6.947 7.277,6.959 7.295,6.969 7.316,6.97 L 7.81,7.012 c 0.15,0 0.192,-0.034 0.218,-0.14 C 8.061,6.797 8.065,6.711 8.073,6.603 L 8.131,5.573 C 8.141,5.061 7.933,4.71 7.692,4.507 7.414,4.27 7.077,4.106 6.779,4.096 6.227,4.095 5.672,4.094 5.119,4.089 4.58,4.139 4.192,4.453 3.816,4.804 m 0,-0.001"
           transform="scale(3.543307,3.543307)"
           stroke-miterlimit="4"
           id="path65-9" />
        <path
           style="fill:none;stroke:#709ccf;stroke-width:0.41;stroke-linecap:round;stroke-linejoin:round;stroke-miterlimit:4;stroke-opacity:1"
           inkscape:connector-curvature="0"
           d="m 9.23,5.486 c 1.321,0.562 1.368,2.883 0,3.7"
           transform="scale(3.543307,3.543307)"
           stroke-miterlimit="4"
           id="path67-9" />
        <path
           style="fill:none;stroke:#709ccf;stroke-width:0.41;stroke-linecap:round;stroke-linejoin:round;stroke-miterlimit:4;stroke-opacity:1"
           inkscape:connector-curvature="0"
           d="m 8.7,6.475 c 0.701,0.281 0.624,1.431 0,1.72"
           transform="scale(3.543307,3.543307)"
           stroke-miterlimit="4"
           id="path69-5" />
        <path
           style="fill:#535453;fill-opacity:1;fill-rule:nonzero;stroke:none"
           inkscape:connector-curvature="0"
           d="m 24,18.918 c 0.008,0.449 0.266,0.855 0.672,1.063 0.41,0.211 0.902,0.191 1.293,-0.051 0.387,-0.242 0.609,-0.668 0.578,-1.113 -0.008,-0.445 -0.266,-0.852 -0.672,-1.063 -0.41,-0.211 -0.902,-0.191 -1.293,0.051 -0.387,0.242 -0.609,0.668 -0.578,1.113 m 0,0"
           id="path71-9" />
        <path
           style="fill:#535453;fill-opacity:1;fill-rule:nonzero;stroke:none"
           inkscape:connector-curvature="0"
           d="m 17.949,19.02 c 0.008,0.445 0.27,0.852 0.676,1.063 0.406,0.211 0.902,0.188 1.289,-0.051 0.391,-0.242 0.613,-0.668 0.582,-1.113 -0.008,-0.449 -0.266,-0.855 -0.676,-1.066 -0.406,-0.207 -0.902,-0.188 -1.289,0.055 -0.387,0.242 -0.609,0.668 -0.582,1.113 m 0,0"
           id="path73-3" />
      </g>
    </g>
  </g>
</svg>
